X:1
T:Title
%%score { ( 1 4 ) | ( 2 3 ) }
L:1/8
M:6/8
K:D
V:1 treble nm="Grand Piano"
V:4 treble 
V:2 treble 
V:3 treble 
V:1
 z3[Q:1/4=100] .[A,FA]2 [Fd] | [Fc]2 [FA] [=FB]2 [Fc] | [EB]2 [EA] [F,D][EA][A,FA] | %3
 [B,CG]2 [A,CF] [G,CE]2 [A,CF] |[M:3/8] [F,D]3 | A z [Fd] |[M:3/4] [Fc]2 [FA] [FB]2 [Fc] | %7
 [Ge]2 [Fd]d c[FB] | A^G A [Gc]2 [GB] |[M:3/8] A3 | ABA |[M:3/4] Ad F [FA]2 [EG] | [EG]2 FB =cB | %13
 Be G [GB]2 [FA] |[M:3/8] G3 | ABA |[M:3/4] [Ae]2 [Ac] [Ad]2 A | z2 z A z2 | %18
 [DB]2 [DE] [CB]2 [CA] | D6 |] %20
V:2
 z3 z B[K:bass][D,A,] | [D,A,]2 [D,A,] [D,^G,]2 [D,G,] | [D,G,]2 [D,G,] z G,D, | %3
 A,,2 A,, A,,2 A,, |[M:3/8] D,3 | z[K:treble] B[K:bass][D,A,] | %6
[M:3/4] [D,A,]2 [D,A,] [D,^G,]2 [C,^A,] | [B,,^A,]2 [B,,B,][B,,B,] [C,A,][D,B,] | %8
 C=C [E,^CE] [E,E]2 [E,D] |[M:3/8] [A,CE]3 | [G,CE]2 [G,CE] | %11
[M:3/4] [F,A,D]2 [F,A,D] [C,A,]2 [C,A,] | [D,A,]2 [D,A,D][K:treble] [A,^DF]2 [A,DF] | %13
 [G,B,E]2 [G,B,E] [^D,B,]2 [D,B,] |[M:3/8] [E,B,E]3 | [G,CE]2 [G,CE] | %16
[M:3/4] [G,C]2 [G,E] [F,D]2 [F,A,D] | [G,A,D]2 [G,D] A,,2 [A,,A,] | %18
 [E,^G,]2 [E,G,] [A,,=G,]2 [A,,G,] | [D,F,]6 |] %20
V:3
 z3 .D,3[K:bass] | x6 | z3 .D,3 | x6 |[M:3/8] x3 | D,2[K:treble][K:bass] z |[M:3/4] x6 | x6 | %8
 [E,E]2 z2 z2 |[M:3/8] x3 | x3 |[M:3/4] x6 | x3[K:treble] x3 | x6 |[M:3/8] x3 | x3 |[M:3/4] x6 | %17
 z2 z F, z2 | x6 | x6 |] %20
V:4
 x6 | x6 | x6 | x6 |[M:3/8] x3 | [A,F]2 z |[M:3/4] x6 | z2 z .F3 | x6 |[M:3/8] x3 | x3 | %11
[M:3/4] x6 | x6 | x6 |[M:3/8] x3 | x3 |[M:3/4] x6 | c2 BD- [B,DG][DF] | x6 | x6 |] %20

